icons/file-shield-fill.svg

<svg xmlns="http://www.w3.org/2000/svg" width="24" height="24" fill="none"><g clip-path="url(#a)"><g><path fill="#121212" d="M21 7V20.993C21.0009 21.1243 20.976 21.2545 20.9266 21.3762C20.8772 21.4979 20.8043 21.6087 20.7121 21.7022C20.6199 21.7957 20.5101 21.8701 20.3892 21.9212C20.2682 21.9723 20.1383 21.9991 20.007 22H3.993C3.72981 22 3.47739 21.8955 3.2912 21.7095C3.105 21.5235 3.00027 21.2712 3 21.008V2.992C3 2.455 3.447 2 3.998 2H15.997L21 7ZM8 8V13.6C8 14.45 8.446 15.243 9.187 15.714L12 17.5L14.813 15.714C15.1733 15.4906 15.4711 15.1795 15.6787 14.8098C15.8862 14.4402 15.9968 14.0239 16 13.6V8H8ZM10 10H14V13.6C14 13.758 13.91 13.918 13.74 14.026L12 15.13L10.26 14.025C10.09 13.917 10 13.757 10 13.599V10Z"/></g></g><defs><clipPath id="a"><rect width="24" height="24" fill="white"/></clipPath></defs></svg>

<svg width="24" height="24" fill="none" xmlns="http://www.w3.org/2000/svg"><g clip-path="url(#a)"><path d="M21 7v13.993A1 1 0 0 1 20.007 22H3.993A.993.993 0 0 1 3 21.008V2.992C3 2.455 3.447 2 3.998 2h11.999L21 7ZM8 8v5.6c0 .85.446 1.643 1.187 2.114L12 17.5l2.813-1.786A2.51 2.51 0 0 0 16 13.6V8H8Zm2 2h4v3.6c0 .158-.09.318-.26.426L12 15.13l-1.74-1.105c-.17-.108-.26-.268-.26-.426V10Z" /></g><defs><clipPath id="a"><path fill="#fff" d="M0 0h24v24H0z"/></clipPath></defs></svg>
